X: 38861
T: Sunday's Well
R: waltz
M: 3/4
K: Amajor
AF|:E2 A3B|c3B BA|e4(3cBA|efa2af|e3f fe|c3B BA|B3c BA|F2A2AF|
E2 A3B|c3B BA|e4(3cBA|efa2af|e2A3B|c3B BA|A6-|1 A3 B AF:|2 A3E (3Ace||
|:a3 b ba|efa2af|e3f fe|c3B (3Ace|a3 b ba|f2a3b|c'6-|c'3b ba|
a4ba|efa2af|e3f fe|c3e cB|A2e2ef|e2c2BA|A6-|1 A3E (3Ace:|2 A3 E FA||

